X:1
T:Jesus Found Me
T:Jesus Found Me
T:George D. Elderkin
T:Henry Irving Rasmus, 1900
T:Public Domain Courtesy of the Cyber Hymnal™
T:Public Domain Courtesy of the Cyber Hymnal™
C:George D. Elderkin
Z:Public Domain
Z:Courtesy of the Cyber Hymnal™
%%score ( 1 2 ) ( 3 4 )
L:1/8
Q:1/4=90
M:4/4
K:D
V:1 treble 
V:2 treble 
V:3 bass 
V:4 bass 
V:1
 [DF][DF][EG] | [FA]>[FA] [^E^G][FA] [=GB][FA][DF]D | [DF]4 [CE]2 [CE][DF] | %3
w: 1.~’Twas in the|star- less night of sor- row that He|found me, When the|
w: 2.~’Twas on the|sea of sin- ful plea- sure that He|found me, And the|
w: 3.~’Twas when the|lamp of faith was burn- ing low He|found me, And no|
w: 4.~’Twas in the|hour of ho- ly tri- umph that He|found me, On the|
 [EG]>[^DF] [EG][FA] [Gc][GB][FA][EG] | [DF]6 [FA][FA] | [Fd]>[Fd] [^Ec][Fd] [G=e][Fd] [Fd]>[FA] | %6
w: spec- ter of my grief was hold- ing|sway; O ’twas|then He threw His lov- ing power a-|
w: sky was black, the storm was bod- ing|ill; When He|spoke in won- drous voice, the waves com-|
w: hon- ey drops were on the chal- ice|rim, That He|said, “My child, when- ev- er did I|
w: mount- ain top of vi- sion with my|Lord, And I|walked with scenes of glo- ry all a-|
 [Ac]2 [GB]2 z [GB][^Ec][Ed] | [FA]3 [DF] [CB][CA][CG][CE] | D4 z2 ||"^Refrain" [DF][EG] | %10
w: round me, And chased the|shades of sor- row all a-|way.||
w: mand- ing, “Oh heed, ye|an- gry pas- sion, peace, be|still.”||
w: fail thee? My Spir- it|take, let vic- tory here be-|gin.”||
w: round us, And shout- ed,|“Hal- le- lu- jah!” un- to|God.||
 [FA]>[FA] [FA][FA] [FA][Fd][Fd][Ge] | [Fd]4 [Ec]2 [Ec][Ed] | %12
w: ||
w: ||
w: ||
w: ||
 [Ee]>[Ee] [Ae][Ge] [Fd][FB][EA][E^G] | A6 [FA][EA] | [Fd]>[Fd] [^Ec][Fd] [G=e][Fd][Fd][FA] | %15
w: |||
w: |||
w: |||
w: |||
 [Ac]2 !fermata![GB]2 z [GB][^Ec][Ed] |"^riten." [FA]3 [DF] [CB][CA][CG][CE] | D4 z |] %18
w: |||
w: |||
w: |||
w: |||
V:2
 x3 | x7 D | x8 | x8 | x8 | x8 | x8 | x8 | D4 x2 || x2 | x8 | x8 | x8 | (E2 F2 G2) x2 | x8 | x8 | %16
 x8 | D4 x |] %18
V:3
 [D,A,][D,A,][D,A,] | [D,D]>[D,D] [D,D][D,D] [D,D][D,D][D,A,][D,F,] | %2
w: ~ ~ ~|~ ~ ~ ~ ~ ~ ~ ~|
 [A,,A,]4 [A,,A,]2 [A,,A,][A,,A,] | [A,,A,]>[A,,A,] [A,,A,][A,,A,] [A,,A,][A,,A,][A,,A,]A, | %4
w: ~ ~ ~ ~|~ ~ ~ ~ ~ ~ ~ ~|
 [D,A,]6 [D,D][D,D] | [D,A,]>[D,A,] [D,A,][D,A,] [D,A,][D,A,] [D,A,]>[D,D] | %6
w: ~ ~ ~|~ ~ ~ ~ ~ ~ ~ ~|
 [G,D]2 [G,D]2 z [G,D][^G,B,][G,B,] | [A,D]3 A, [A,,G,][A,,G,][A,,G,][A,,G,] | [D,F,]4 z2 || %9
w: ~ ~ ~ ~ ~|~ ~ ~ ~ ~ ~|~|
 [D,A,][D,A,] | [D,D]>[D,D] [D,D][D,D] [D,D][D,A,][D,A,][D,A,] | [A,,A,]4 [A,,A,]2 A,[A,B,] | %12
w: Je- sus|found me, hal- le- lu- jah! Je- sus|found me! I shall|
 [A,C]>[A,C] [A,C][C,A,] [D,A,][D,D][E,C][E,B,] | (C2 D2 E2) [A,D][A,C] | %14
w: ne- ver, ne- ver cease His praise to|sing, * * And when|
 [D,A,]>[D,A,] [D,A,][D,A,] [D,A,][D,A,][D,A,][D,D] | [G,D]2 !fermata![G,D]2 z [G,D][^G,B,][G,B,] | %16
w: time shall end and Hea- ven o- pens|round me, I’ll kiss His|
 [A,D]3 A, [A,,G,][A,,G,][A,,G,][A,,G,] | [D,F,]4 z |] %18
w: feet, and end- less hom- age|bring.|
V:4
 x3 | x8 | x8 | x8 | x8 | x8 | x8 | x3 A, x4 | x6 || x2 | x8 | x6 A, x | x8 | A,,6 x2 | x8 | x8 | %16
 x3 A, x4 | x5 |] %18

